img/logo/logo-footer.svg

<svg width="194" height="46" viewBox="0 0 194 46" fill="none" xmlns="http://www.w3.org/2000/svg">
<path d="M71.909 15.9H79.223C80.971 15.9 82.512 16.2373 83.846 16.912C85.1953 17.5713 86.238 18.5067 86.974 19.718C87.7253 20.9293 88.101 22.34 88.101 23.95C88.101 25.56 87.7253 26.9707 86.974 28.182C86.238 29.3933 85.1953 30.3363 83.846 31.011C82.512 31.6703 80.971 32 79.223 32H71.909V15.9ZM79.039 28.941C80.649 28.941 81.9293 28.4963 82.88 27.607C83.846 26.7023 84.329 25.4833 84.329 23.95C84.329 22.4167 83.846 21.2053 82.88 20.316C81.9293 19.4113 80.649 18.959 79.039 18.959H75.635V28.941H79.039ZM102.779 25.859C102.779 25.905 102.756 26.227 102.71 26.825H93.349C93.5176 27.5917 93.9163 28.1973 94.545 28.642C95.1736 29.0867 95.9556 29.309 96.891 29.309C97.535 29.309 98.1023 29.217 98.593 29.033C99.099 28.8337 99.5666 28.527 99.996 28.113L101.905 30.183C100.74 31.517 99.0376 32.184 96.799 32.184C95.4036 32.184 94.1693 31.9157 93.096 31.379C92.0226 30.827 91.1946 30.068 90.612 29.102C90.0293 28.136 89.738 27.0397 89.738 25.813C89.738 24.6017 90.0216 23.513 90.589 22.547C91.1716 21.5657 91.9613 20.8067 92.958 20.27C93.97 19.718 95.097 19.442 96.339 19.442C97.5503 19.442 98.6466 19.7027 99.628 20.224C100.609 20.7453 101.376 21.4967 101.928 22.478C102.495 23.444 102.779 24.571 102.779 25.859ZM96.362 22.156C95.5493 22.156 94.867 22.386 94.315 22.846C93.763 23.306 93.4256 23.9347 93.303 24.732H99.398C99.2753 23.95 98.938 23.329 98.386 22.869C97.834 22.3937 97.1593 22.156 96.362 22.156ZM117.225 19.626L112.004 32H108.301L103.103 19.626H106.806L110.233 28.044L113.775 19.626H117.225ZM133.593 32L133.57 22.34L128.832 30.298H127.153L122.438 22.547V32H118.942V15.9H122.024L128.05 25.905L133.984 15.9H137.043L137.089 32H133.593ZM151.512 28.55H144.037L142.611 32H138.793L145.969 15.9H149.649L156.848 32H152.938L151.512 28.55ZM150.339 25.721L147.786 19.557L145.233 25.721H150.339ZM173.284 15.9V32H170.225L162.198 22.225V32H158.518V15.9H161.6L169.604 25.675V15.9H173.284ZM184.247 32.276C181.947 32.276 180.153 31.6397 178.865 30.367C177.592 29.0943 176.956 27.2773 176.956 24.916V15.9H180.682V24.778C180.682 27.6607 181.878 29.102 184.27 29.102C185.435 29.102 186.324 28.757 186.938 28.067C187.551 27.3617 187.858 26.2653 187.858 24.778V15.9H191.538V24.916C191.538 27.2773 190.894 29.0943 189.606 30.367C188.333 31.6397 186.547 32.276 184.247 32.276Z" fill="#E9E9E9"/>
<line x1="63.5" y1="4" x2="63.5" y2="44" stroke="#FFFDFD" stroke-opacity="0.35"/>
<path d="M21.7836 8.50064L31.2573 14.1798L21.7836 20.0519L12.3099 14.1798L21.7836 8.50064Z" fill="#FF596F"/>
<g filter="url(#filter0_d)">
<path d="M34.5 12.0574L57 25.5455L34.5 39.4918L12 25.5455L34.5 12.0574Z" fill="#650743"/>
</g>
<g filter="url(#filter1_d)">
<path d="M36.5688 5.39988L50.7793 13.9187L36.5688 22.7268L22.3583 13.9187L36.5688 5.39988Z" fill="#CD1456"/>
</g>
<defs>
<filter id="filter0_d" x="0" y="0.0574341" width="61" height="43.4344" filterUnits="userSpaceOnUse" color-interpolation-filters="sRGB">
<feFlood flood-opacity="0" result="BackgroundImageFix"/>
<feColorMatrix in="SourceAlpha" type="matrix" values="0 0 0 0 0 0 0 0 0 0 0 0 0 0 0 0 0 0 127 0"/>
<feOffset dx="-4" dy="-4"/>
<feGaussianBlur stdDeviation="4"/>
<feColorMatrix type="matrix" values="0 0 0 0 0 0 0 0 0 0 0 0 0 0 0 0 0 0 0.35 0"/>
<feBlend mode="normal" in2="BackgroundImageFix" result="effect1_dropShadow"/>
<feBlend mode="normal" in="SourceGraphic" in2="effect1_dropShadow" result="shape"/>
</filter>
<filter id="filter1_d" x="18.3583" y="5.3999" width="36.4211" height="25.327" filterUnits="userSpaceOnUse" color-interpolation-filters="sRGB">
<feFlood flood-opacity="0" result="BackgroundImageFix"/>
<feColorMatrix in="SourceAlpha" type="matrix" values="0 0 0 0 0 0 0 0 0 0 0 0 0 0 0 0 0 0 127 0"/>
<feOffset dy="4"/>
<feGaussianBlur stdDeviation="2"/>
<feColorMatrix type="matrix" values="0 0 0 0 0 0 0 0 0 0 0 0 0 0 0 0 0 0 0.3 0"/>
<feBlend mode="normal" in2="BackgroundImageFix" result="effect1_dropShadow"/>
<feBlend mode="normal" in="SourceGraphic" in2="effect1_dropShadow" result="shape"/>
</filter>
</defs>
</svg>

<svg width="194" height="46" fill="none" xmlns="http://www.w3.org/2000/svg"><path d="M71.909 15.9h7.314c1.748 0 3.289.337 4.623 1.012 1.35.66 2.392 1.595 3.128 2.806.751 1.211 1.127 2.622 1.127 4.232 0 1.61-.376 3.02-1.127 4.232-.736 1.211-1.779 2.154-3.128 2.829-1.334.66-2.875.989-4.623.989h-7.314V15.9zm7.13 13.041c1.61 0 2.89-.445 3.841-1.334.966-.905 1.449-2.124 1.449-3.657s-.483-2.745-1.449-3.634c-.95-.905-2.231-1.357-3.841-1.357h-3.404v9.982h3.404zm23.74-3.082c0 .046-.023.368-.069.966h-9.361a2.915 2.915 0 001.196 1.817c.629.445 1.41.667 2.346.667.644 0 1.211-.092 1.702-.276.506-.2.974-.506 1.403-.92l1.909 2.07c-1.165 1.334-2.867 2.001-5.106 2.001-1.395 0-2.63-.268-3.703-.805-1.073-.552-1.901-1.311-2.484-2.277-.583-.966-.874-2.062-.874-3.289 0-1.211.284-2.3.851-3.266a6.038 6.038 0 012.369-2.277c1.012-.552 2.139-.828 3.381-.828 1.211 0 2.308.26 3.289.782a5.615 5.615 0 012.3 2.254c.567.966.851 2.093.851 3.381zm-6.417-3.703c-.813 0-1.495.23-2.047.69-.552.46-.89 1.089-1.012 1.886h6.095c-.123-.782-.46-1.403-1.012-1.863-.552-.475-1.227-.713-2.024-.713zm20.863-2.53L112.004 32h-3.703l-5.198-12.374h3.703l3.427 8.418 3.542-8.418h3.45zM133.593 32l-.023-9.66-4.738 7.958h-1.679l-4.715-7.751V32h-3.496V15.9h3.082l6.026 10.005 5.934-10.005h3.059l.046 16.1h-3.496zm17.919-3.45h-7.475L142.611 32h-3.818l7.176-16.1h3.68l7.199 16.1h-3.91l-1.426-3.45zm-1.173-2.829l-2.553-6.164-2.553 6.164h5.106zm22.945-9.821V32h-3.059l-8.027-9.775V32h-3.68V15.9h3.082l8.004 9.775V15.9h3.68zm10.963 16.376c-2.3 0-4.094-.636-5.382-1.909-1.273-1.273-1.909-3.09-1.909-5.451V15.9h3.726v8.878c0 2.883 1.196 4.324 3.588 4.324 1.165 0 2.054-.345 2.668-1.035.613-.705.92-1.802.92-3.289V15.9h3.68v9.016c0 2.361-.644 4.178-1.932 5.451-1.273 1.273-3.059 1.909-5.359 1.909z" fill="#E9E9E9"/><path stroke="#FFFDFD" stroke-opacity=".35" d="M63.5 4v40"/><path d="M21.784 8.5l9.473 5.68-9.473 5.872-9.474-5.872 9.474-5.68z" fill="#FF596F"/><g filter="url(#filter0_d)"><path d="M34.5 12.057L57 25.546 34.5 39.492 12 25.546l22.5-13.489z" fill="#650743"/></g><g filter="url(#filter1_d)"><path d="M36.569 5.4l14.21 8.519-14.21 8.808-14.21-8.808 14.21-8.52z" fill="#CD1456"/></g><defs><filter id="filter0_d" x="0" y=".057" width="61" height="43.434" filterUnits="userSpaceOnUse" color-interpolation-filters="sRGB"><feFlood flood-opacity="0" result="BackgroundImageFix"/><feColorMatrix in="SourceAlpha" values="0 0 0 0 0 0 0 0 0 0 0 0 0 0 0 0 0 0 127 0"/><feOffset dx="-4" dy="-4"/><feGaussianBlur stdDeviation="4"/><feColorMatrix values="0 0 0 0 0 0 0 0 0 0 0 0 0 0 0 0 0 0 0.35 0"/><feBlend in2="BackgroundImageFix" result="effect1_dropShadow"/><feBlend in="SourceGraphic" in2="effect1_dropShadow" result="shape"/></filter><filter id="filter1_d" x="18.358" y="5.4" width="36.421" height="25.327" filterUnits="userSpaceOnUse" color-interpolation-filters="sRGB"><feFlood flood-opacity="0" result="BackgroundImageFix"/><feColorMatrix in="SourceAlpha" values="0 0 0 0 0 0 0 0 0 0 0 0 0 0 0 0 0 0 127 0"/><feOffset dy="4"/><feGaussianBlur stdDeviation="2"/><feColorMatrix values="0 0 0 0 0 0 0 0 0 0 0 0 0 0 0 0 0 0 0.3 0"/><feBlend in2="BackgroundImageFix" result="effect1_dropShadow"/><feBlend in="SourceGraphic" in2="effect1_dropShadow" result="shape"/></filter></defs></svg>
